X:121
T:Coleraine
M:6/8
L:1/8
K:C
"Am"EAA ABc|"E"Bee e2 d|"Am"cBA ABc|"E"B^GE E2 D|"Am"EAA ABc|"E"Bee e2 d|
"Am"cBA "E"B^GE|1 "Am"A3 A2 E:|2 "Am"A3 A2 B|:"C"c2 c cdc|\
"G" Bdg g2 ^g|"Am"aed cBA|
"E"^GBG E^FG|"Am"A^GA "E"BAB|"Am"cde "Dm"fed|\
"Am"cBA "E"B^GE|1 "Am"A3 A2 B:|2 "Am"A3 A3|]
